svg/u1f4d6.svg

<svg viewBox="0 0 128 128" xmlns="http://www.w3.org/2000/svg">
  <g>
    <path d="M70.24,100.79l48.55,4.62c4.57,0.44,5.74-2.11,5.74-4.27l-0.05-2.62L64.77,90.1 C64.77,93.09,67.2,100.79,70.24,100.79z" fill="#C62828"/>
    <path d="M72.01,98.51l7.64,0.67l40.91,3.95c2.2,0,3.97-1.75,3.97-3.91l-2.17-66.26 c0-2.16-1.78-3.91-3.97-3.91l-46.38-4.38c-3.04,0-5.51,2.43-5.51,5.42v63C66.5,96.08,68.96,98.51,72.01,98.51z" fill="#F44336"/>
    <path d="M57.76,100.79l-48.55,4.62c-4.57,0.44-5.74-2.11-5.74-4.27l0.05-2.62l59.71-8.43 C63.23,93.09,60.8,100.79,57.76,100.79z" fill="#C62828"/>
    <path d="M55.99,98.51l-7.58,0.67l-40.97,3.96c-2.2,0-3.97-1.75-3.97-3.91l2.17-66.26 c0-2.16,1.78-3.91,3.97-3.91l46.38-4.38c3.04,0,5.51,2.43,5.51,5.42v63C61.5,96.08,59.04,98.51,55.99,98.51z" fill="#F44336"/>
    <path d="M78.75,83.68H49.27l-0.9,15.53l9.2,0.86c0,0,1.97,4.92,6.43,4.92s6.43-4.92,6.43-4.92l9.2-0.86 L78.75,83.68z" fill="#424242"/>
    <line fill="none" stroke="#616161" stroke-width="2.5" stroke-miterlimit="10" x1="79.54" x2="70.97" y1="100.43" y2="99.69"/>
    <line fill="none" stroke="#616161" stroke-width="2.5" stroke-miterlimit="10" x1="48.46" x2="57.03" y1="100.43" y2="99.69"/>
    <path d="M119.65,32.82l-4-5.5L64,86.02l-51.65-58.7l-4,5.5L7.79,98.17c0,0,10.62,1.33,24.81-0.11 c12.36-1.25,18.18-4.45,22.31-3.62c4.96,1,5.86,4.05,6.02,4.57c0.45,1.44,1.34,2.56,3.07,2.56s2.5-0.6,3.03-2.38 c0.16-0.52,1.1-3.74,6.06-4.74c4.13-0.83,9.95,2.37,22.31,3.62c14.19,1.44,24.81,0.11,24.81,0.11L119.65,32.82z" fill="#94C6D6"/>
    <linearGradient id="SVGID_1_" gradientTransform="matrix(-1 0 0 1 168.1284 0)" gradientUnits="userSpaceOnUse" x1="50.8847" x2="50.6375" y1="88.2008" y2="70.8982">
      <stop offset="0.2665" stop-color="#82AEC0"/>
      <stop offset="1" stop-color="#82AEC0" stop-opacity="0"/>
    </linearGradient>
    <path d="M114.3,91.87l0.16-26.39h5.47l0.28,32.69C120.21,98.17,115.86,96.48,114.3,91.87z" fill="url(#SVGID_1_)"/>
    <linearGradient id="SVGID_2_" gradientTransform="matrix(-1 0 0 1 168.1284 0)" gradientUnits="userSpaceOnUse" x1="98.2114" x2="55.3995" y1="84.601" y2="84.601">
      <stop offset="0" stop-color="#2F7889"/>
      <stop offset="1" stop-color="#82AEC0"/>
    </linearGradient>
    <path d="M114.55,76.49l-0.25,15.39c0,0-11.96-0.62-31.01-3.92C70.83,85.8,64,92.72,64,92.72 l-0.11-16.23H114.55z" fill="url(#SVGID_2_)"/>
    <linearGradient id="SVGID_3_" gradientUnits="userSpaceOnUse" x1="57.9793" x2="15.2634" y1="84.601" y2="84.601">
      <stop offset="0" stop-color="#2F7889"/>
      <stop offset="1" stop-color="#82AEC0"/>
    </linearGradient>
    <path d="M13.45,76.49l0.25,15.39c0,0,11.96-0.62,31.01-3.92C57.17,85.8,64,92.72,64,92.72 l-0.11-16.23H13.45z" fill="url(#SVGID_3_)"/>
    <linearGradient id="SVGID_4_" gradientUnits="userSpaceOnUse" x1="10.7527" x2="10.5055" y1="88.2008" y2="70.8981">
      <stop offset="0.2665" stop-color="#82AEC0"/>
      <stop offset="1" stop-color="#82AEC0" stop-opacity="0"/>
    </linearGradient>
    <path d="M13.7,91.87l-0.16-26.39H8.06L7.79,98.17C7.79,98.17,12.13,96.48,13.7,91.87z" fill="url(#SVGID_4_)"/>
    <path d="M115.65,27.32c0,0-26.54-4.99-38.19-5.64c-10.96-0.61-13.21,4.97-13.43,5.64h-0.04 c-0.23-0.67-2.48-6.24-13.44-5.64c-11.65,0.65-38.19,5.64-38.19,5.64l-1.18,64.4c0,0,31.6-6.62,39.25-5.76S64,92.72,64,92.72 S64,92.71,64,92.71v0.01c0,0,5.93-5.9,13.58-6.76c7.65-0.86,39.25,5.76,39.25,5.76L115.65,27.32z" fill="#F5F5F5"/>
    <path d="M53.62,21.69l-5.4,64.2c0.85-0.02,1.6,0,2.2,0.07C58.06,86.81,64,92.72,64,92.72 l-0.17-65.4C63.83,27.32,62.53,22.2,53.62,21.69z" opacity="0.26" fill="#94C6D6"/>
    <g opacity="0.5">
      <path d="M25.31,30.18c-2.7,0.47-4.91,0.87-6.17,1.09c0,0.62,0,1.3-0.01,2.03c1.11-0.2,3.37-0.61,6.18-1.1 V30.18z" fill="#757575"/>
      <g>
        <path d="M49.65,26.96v1.99c5.33-0.01,8.28,1.33,9.25,1.87c0-0.83,0.01-1.57,0.01-2.22 C57.26,27.86,54.24,26.95,49.65,26.96z" fill="#757575"/>
        <path d="M45.31,27.21c-4.33,0.44-10.36,1.36-15.66,2.24v2.03c5.26-0.87,11.3-1.8,15.66-2.26V27.21z" fill="#757575"/>
      </g>
      <g>
        <path d="M34.66,35.84c-6.46,1-12.94,2.16-15.54,2.63c0,0.66,0,1.34,0,2.03c2.26-0.41,8.89-1.61,15.54-2.64 V35.84z" fill="#757575"/>
        <path d="M46.69,34.28c-2.11,0.17-4.8,0.51-7.69,0.91v2.02c2.95-0.42,5.71-0.76,7.85-0.94 c7.18-0.59,10.97,1.17,12.03,1.77c0-0.77,0-1.51,0-2.23C56.92,34.94,52.99,33.76,46.69,34.28z" fill="#757575"/>
      </g>
      <g>
        <path d="M26.38,44.39c-3.16,0.54-5.8,1.01-7.26,1.28c0,0.67,0,1.35,0,2.03c1.31-0.24,3.99-0.72,7.26-1.28 V44.39z" fill="#757575"/>
        <path d="M58.88,43.04c-1.95-0.88-5.89-2.08-12.25-1.55c-4.07,0.33-10.3,1.26-15.91,2.18v2.03 c5.66-0.93,11.98-1.87,16.08-2.21c7.3-0.6,11.1,1.23,12.08,1.8C58.88,44.52,58.88,43.78,58.88,43.04z" fill="#757575"/>
      </g>
      <g>
        <path d="M58.89,50.27c-1.93-0.88-5.89-2.11-12.3-1.58c-0.65,0.05-1.35,0.12-2.09,0.2v2.01 c0.81-0.09,1.56-0.16,2.26-0.22c7.44-0.61,11.24,1.3,12.14,1.84C58.89,51.77,58.89,51.02,58.89,50.27z" fill="#757575"/>
        <path d="M40.15,49.43c-7.82,1.07-17.56,2.8-21.02,3.43c0,0.68,0,1.35,0,2.03 c3.05-0.56,13.02-2.35,21.02-3.45V49.43z" fill="#757575"/>
      </g>
      <g>
        <path d="M28.25,58.47c-3.93,0.66-7.33,1.27-9.12,1.59c0,0.68,0,1.36,0,2.03c1.62-0.3,5.07-0.92,9.12-1.6 V58.47z" fill="#757575"/>
        <path d="M58.9,57.51c-1.91-0.88-5.89-2.14-12.36-1.61c-3.6,0.3-8.88,1.05-13.94,1.86v2.02 c5.11-0.82,10.48-1.59,14.1-1.89c7.63-0.63,11.44,1.41,12.2,1.87C58.9,59.01,58.9,58.26,58.9,57.51z" fill="#757575"/>
      </g>
      <path d="M58.92,71.98c-1.82-0.87-5.76-2.18-12.26-1.69v2.01c8.29-0.67,12.05,1.81,12.26,1.96 C58.92,73.52,58.92,72.76,58.92,71.98z" fill="#757575"/>
      <g>
        <path d="M26.38,73.18c-3.08,0.53-5.7,0.99-7.23,1.27c0,0.7,0,1.37,0,2.03c1.41-0.26,4.05-0.73,7.23-1.28 V73.18z" fill="#757575"/>
        <path d="M30.72,72.46v2.03c3.88-0.63,8.05-1.27,11.6-1.72v-2.02C38.79,71.19,34.62,71.82,30.72,72.46z" fill="#757575"/>
      </g>
      <g>
        <path d="M37.67,78.58c-7.16,1.04-15.21,2.47-18.51,3.07c0,0.74,0,1.42,0,2.03 c2.99-0.55,11.19-2.01,18.51-3.08V78.58z" fill="#757575"/>
        <path d="M58.93,79.22c-1.81-0.88-5.84-2.25-12.56-1.7c-1.27,0.1-2.75,0.27-4.36,0.47V80 c1.67-0.21,3.21-0.38,4.52-0.49c8.56-0.71,12.32,1.95,12.36,1.97l0.05-0.06C58.94,80.73,58.94,80,58.93,79.22z" fill="#757575"/>
      </g>
      <g>
        <path d="M36.18,64.4c-6.82,1.02-14.05,2.31-17.04,2.86c0,0.69,0,1.36,0,2.03 c2.68-0.49,10.05-1.81,17.04-2.87V64.4z" fill="#757575"/>
        <path d="M58.91,64.74c-1.88-0.88-5.87-2.18-12.43-1.64c-1.68,0.14-3.73,0.38-5.95,0.68v2.02 c2.29-0.31,4.4-0.56,6.12-0.7c7.88-0.65,11.69,1.54,12.27,1.91C58.91,66.27,58.91,65.51,58.91,64.74z" fill="#757575"/>
      </g>
    </g>
    <g opacity="0.5">
      <g>
        <path d="M88.41,29.71c8.28,1.1,19.1,3.06,22.04,3.59c0-0.74,0-1.41-0.01-2.03 c-3.44-0.63-13.97-2.51-22.04-3.58V29.71z" fill="#757575"/>
        <path d="M84.06,27.19c-0.43-0.04-0.84-0.08-1.23-0.11c-6.27-0.52-10.19,0.65-12.16,1.52 c0,0.65,0.01,1.4,0.01,2.22c1.12-0.62,4.91-2.33,11.99-1.75c0.44,0.04,0.91,0.08,1.39,0.13V27.19z" fill="#757575"/>
      </g>
      <g>
        <path d="M102.36,39.08c3.67,0.63,6.71,1.17,8.1,1.43c0-0.7,0-1.37,0-2.03c-1.57-0.29-4.55-0.82-8.1-1.42 V39.08z" fill="#757575"/>
        <path d="M98.02,36.33c-5.41-0.87-11.25-1.73-15.13-2.05c-6.3-0.52-10.23,0.66-12.2,1.53 c0,0.72,0,1.46,0,2.23c1.06-0.6,4.85-2.36,12.03-1.77c3.91,0.32,9.84,1.2,15.29,2.08V36.33z" fill="#757575"/>
      </g>
      <path d="M97.18,43.39v2.02c5.81,0.93,11.22,1.91,13.28,2.29c0-0.69,0-1.36,0-2.03 C108.13,45.25,102.82,44.3,97.18,43.39z" fill="#757575"/>
      <g>
        <path d="M88.4,49.3c-2.01-0.26-3.87-0.48-5.41-0.6c-6.41-0.53-10.37,0.7-12.3,1.58c0,0.75,0,1.5,0,2.25 c0.9-0.53,4.71-2.45,12.14-1.84c1.58,0.13,3.5,0.35,5.57,0.63V49.3z" fill="#757575"/>
        <path d="M92.75,49.91v2.02c7.25,1.08,15.06,2.49,17.7,2.97c0-0.68,0-1.36,0-2.03 C107.47,52.32,99.82,50.96,92.75,49.91z" fill="#757575"/>
      </g>
      <g>
        <path d="M93.63,57.24c-3.95-0.6-7.78-1.11-10.58-1.34c-6.48-0.53-10.46,0.73-12.36,1.61 c0,0.75,0,1.51,0,2.26c0.76-0.47,4.57-2.5,12.2-1.87c2.83,0.23,6.74,0.76,10.75,1.37V57.24z" fill="#757575"/>
        <path d="M97.97,57.92v2.03c5.44,0.88,10.42,1.78,12.47,2.15c0-0.67,0-1.35,0-2.03 C108.16,59.65,103.26,58.77,97.97,57.92z" fill="#757575"/>
      </g>
      <path d="M105.04,66.3v2.03c2.36,0.41,4.29,0.76,5.39,0.96c0-0.67,0-1.35,0-2.03 C109.23,67.04,107.33,66.7,105.04,66.3z" fill="#757575"/>
      <g>
        <path d="M89.29,71.01c-2.29-0.31-4.41-0.56-6.13-0.7c-6.64-0.55-10.65,0.79-12.49,1.67 c0,0.78,0,1.54,0,2.28c0.21-0.15,3.99-2.65,12.34-1.96c1.76,0.14,3.94,0.4,6.3,0.72V71.01z" fill="#757575"/>
        <path d="M93.63,71.63v2.02c6.88,1.04,14.1,2.34,16.8,2.83c0-0.66,0-1.34,0-2.03 C107.43,73.91,100.35,72.65,93.63,71.63z" fill="#757575"/>
      </g>
      <g>
        <path d="M97.18,79.38c-5.07-0.81-10.37-1.57-13.97-1.87c-6.73-0.55-10.75,0.83-12.56,1.7 c0,0.78,0,1.51,0,2.2l0.05,0.06c0.03-0.02,3.79-2.68,12.36-1.97c3.63,0.3,9.02,1.08,14.14,1.9V79.38z" fill="#757575"/>
        <path d="M101.53,80.1v2.03c3.89,0.65,7.21,1.25,8.89,1.56c0-0.61,0-1.29,0-2.03 C108.59,81.32,105.31,80.73,101.53,80.1z" fill="#757575"/>
      </g>
      <g>
        <path d="M82.93,63.09c-6.46-0.51-10.4,0.78-12.26,1.65c0,0.76,0,1.52,0,2.27 c0.58-0.37,4.38-2.56,12.26-1.91V63.09z" fill="#757575"/>
        <path d="M87.28,63.55v2.01c4.12,0.52,9.07,1.3,13.42,2.02v-2.03C96.32,64.83,91.37,64.06,87.28,63.55z" fill="#757575"/>
      </g>
      <g>
        <path d="M79.72,41.37c-4.48,0.03-7.43,0.95-9.02,1.67c0,0.74,0,1.48,0,2.24c0.84-0.48,3.71-1.87,9.02-1.92 V41.37z" fill="#757575"/>
        <path d="M84.06,41.59v2.01c2.49,0.25,5.58,0.67,8.77,1.14v-2.02C89.63,42.24,86.55,41.83,84.06,41.59z" fill="#757575"/>
      </g>
    </g>
    <path d="M71.16,98.45c-1.12-0.1-2.15,0.59-2.51,1.66c-0.54,1.63-1.8,3.76-4.65,3.76 c-2.88,0-4.15-2.14-4.7-3.77c-0.36-1.05-1.37-1.73-2.48-1.64l-0.39,0.03l0.01,0.32c0,4.17,3.38,7.55,7.55,7.55 c4.17,0,7.55-3.38,7.55-7.55c0-0.1-0.01-0.33-0.01-0.33L71.16,98.45z" fill="#616161"/>
  </g>
</svg>

<svg viewBox="0 0 128 128" xmlns="http://www.w3.org/2000/svg">
  <defs>
    <linearGradient id="SVGID_1_" gradientTransform="matrix(-1 0 0 1 0 0)" gradientUnits="userSpaceOnUse" x1="-117.2437" x2="-117.4909" y1="88.2008" y2="70.8982">
      <stop offset="0.2665" stop-color="#82AEC0"/>
      <stop offset="1" stop-color="#82AEC0" stop-opacity="0"/>
    </linearGradient>
    <linearGradient id="SVGID_2_" gradientTransform="matrix(-1 0 0 1 0 0)" gradientUnits="userSpaceOnUse" x1="-69.917" x2="-112.7289" y1="84.601" y2="84.601">
      <stop offset="0" stop-color="#2F7889"/>
      <stop offset="1" stop-color="#82AEC0"/>
    </linearGradient>
    <linearGradient id="SVGID_3_" gradientUnits="userSpaceOnUse" x1="57.9793" x2="15.2634" y1="84.601" y2="84.601">
      <stop offset="0" stop-color="#2F7889"/>
      <stop offset="1" stop-color="#82AEC0"/>
    </linearGradient>
    <linearGradient id="SVGID_4_" gradientUnits="userSpaceOnUse" x1="10.7527" x2="10.5055" y1="88.2008" y2="70.8981">
      <stop offset="0.2665" stop-color="#82AEC0"/>
      <stop offset="1" stop-color="#82AEC0" stop-opacity="0"/>
    </linearGradient>
  </defs>
  <path d="M70.24,100.79 L118.79,105.41 C123.36,105.85 124.53,103.3 124.53,101.14 L124.48,98.52 L64.77,90.1 C64.77,93.09 67.2,100.79 70.24,100.79 Z" fill="#C62828"/>
  <path d="M72.01,98.51 L79.65,99.18 L120.56,103.13 C122.76,103.13 124.53,101.38 124.53,99.22 L122.36,32.96 C122.36,30.8 120.58,29.05 118.39,29.05 L72.01,24.67 C68.97,24.67 66.5,27.1 66.5,30.09 L66.5,93.09 C66.5,96.08 68.96,98.51 72.01,98.51 Z" fill="#F44336"/>
  <path d="M57.76,100.79 L9.21,105.41 C4.64,105.85 3.47,103.3 3.47,101.14 L3.52,98.52 L63.23,90.09 C63.23,93.09 60.8,100.79 57.76,100.79 Z" fill="#C62828"/>
  <path d="M55.99,98.51 L48.41,99.18 L7.44,103.14 C5.24,103.14 3.47,101.39 3.47,99.23 L5.64,32.97 C5.64,30.81 7.42,29.06 9.61,29.06 L55.99,24.68 C59.03,24.68 61.5,27.11 61.5,30.1 L61.5,93.1 C61.5,96.08 59.04,98.51 55.99,98.51 Z" fill="#F44336"/>
  <path d="M78.75,83.68 L49.27,83.68 L48.37,99.21 L57.57,100.07 C57.57,100.07 59.54,104.99 64,104.99 C68.46,104.99 70.43,100.07 70.43,100.07 L79.63,99.21 L78.75,83.68 Z" fill="#424242"/>
  <path d="M79.432,101.675 L70.862,100.935 L71.078,98.445 L79.648,99.185 L79.432,101.675 Z" fill="#616161"/>
  <path d="M48.352,99.185 L56.922,98.445 L57.138,100.935 L48.568,101.675 L48.352,99.185 Z" fill="#616161"/>
  <path d="M119.65,32.82 L115.65,27.32 L64,86.02 L12.35,27.32 L8.35,32.82 L7.79,98.17 C7.79,98.17 18.41,99.5 32.6,98.06 C44.96,96.81 50.78,93.61 54.91,94.44 C59.87,95.44 60.77,98.49 60.93,99.01 C61.38,100.45 62.27,101.57 64,101.57 C65.73,101.57 66.5,100.97 67.03,99.19 C67.19,98.67 68.13,95.45 73.09,94.45 C77.22,93.62 83.04,96.82 95.4,98.07 C109.59,99.51 120.21,98.18 120.21,98.18 L119.65,32.82 Z" fill="#94C6D6"/>
  <path d="M114.3,91.87 L114.46,65.48 L119.93,65.48 L120.21,98.17 C120.21,98.17 115.86,96.48 114.3,91.87 Z" fill="url(#SVGID_1_)"/>
  <path d="M114.55,76.49 L114.3,91.88 C114.3,91.88 102.34,91.26 83.29,87.96 C70.83,85.8 64,92.72 64,92.72 L63.89,76.49 L114.55,76.49 Z" fill="url(#SVGID_2_)"/>
  <path d="M13.45,76.49 L13.7,91.88 C13.7,91.88 25.66,91.26 44.71,87.96 C57.17,85.8 64,92.72 64,92.72 L63.89,76.49 L13.45,76.49 Z" fill="url(#SVGID_3_)"/>
  <path d="M13.7,91.87 L13.54,65.48 L8.06,65.48 L7.79,98.17 C7.79,98.17 12.13,96.48 13.7,91.87 Z" fill="url(#SVGID_4_)"/>
  <path d="M115.65,27.32 C115.65,27.32 89.11,22.33 77.46,21.68 C66.5,21.07 64.25,26.65 64.03,27.32 L63.99,27.32 C63.76,26.65 61.51,21.08 50.55,21.68 C38.9,22.33 12.36,27.32 12.36,27.32 L11.18,91.72 C11.18,91.72 42.78,85.1 50.43,85.96 C58.08,86.82 64,92.72 64,92.72 C64,92.72 64,92.71 64,92.71 L64,92.72 C64,92.72 69.93,86.82 77.58,85.96 C85.23,85.1 116.83,91.72 116.83,91.72 L115.65,27.32 Z" fill="#F5F5F5"/>
  <path d="M53.62,21.69 L48.22,85.89 C49.07,85.87 49.82,85.89 50.42,85.96 C58.06,86.81 64,92.72 64,92.72 L63.83,27.32 C63.83,27.32 62.53,22.2 53.62,21.69 Z" fill="#94C6D6" opacity="0.26"/>
  <g opacity="0.5">
    <path d="M25.31,30.18 C22.61,30.65 20.4,31.05 19.14,31.27 C19.14,31.89 19.14,32.57 19.13,33.3 C20.24,33.1 22.5,32.69 25.31,32.2 L25.31,30.18 Z" fill="#757575"/>
    <path d="M49.65,26.96 L49.65,28.95 C54.98,28.94 57.93,30.28 58.9,30.82 C58.9,29.99 58.91,29.25 58.91,28.6 C57.26,27.86 54.24,26.95 49.65,26.96 Z" fill="#757575"/>
    <path d="M45.31,27.21 C40.98,27.65 34.95,28.57 29.65,29.45 L29.65,31.48 C34.91,30.61 40.95,29.68 45.31,29.22 L45.31,27.21 Z" fill="#757575"/>
    <path d="M34.66,35.84 C28.2,36.84 21.72,38 19.12,38.47 C19.12,39.13 19.12,39.81 19.12,40.5 C21.38,40.09 28.01,38.89 34.66,37.86 L34.66,35.84 Z" fill="#757575"/>
    <path d="M46.69,34.28 C44.58,34.45 41.89,34.79 39,35.19 L39,37.21 C41.95,36.79 44.71,36.45 46.85,36.27 C54.03,35.68 57.82,37.44 58.88,38.04 C58.88,37.27 58.88,36.53 58.88,35.81 C56.92,34.94 52.99,33.76 46.69,34.28 Z" fill="#757575"/>
    <path d="M26.38,44.39 C23.22,44.93 20.58,45.4 19.12,45.67 C19.12,46.34 19.12,47.02 19.12,47.7 C20.43,47.46 23.11,46.98 26.38,46.42 L26.38,44.39 Z" fill="#757575"/>
    <path d="M58.88,43.04 C56.93,42.16 52.99,40.96 46.63,41.49 C42.56,41.82 36.33,42.75 30.72,43.67 L30.72,45.7 C36.38,44.77 42.7,43.83 46.8,43.49 C54.1,42.89 57.9,44.72 58.88,45.29 C58.88,44.52 58.88,43.78 58.88,43.04 Z" fill="#757575"/>
    <path d="M58.89,50.27 C56.96,49.39 53,48.16 46.59,48.69 C45.94,48.74 45.24,48.81 44.5,48.89 L44.5,50.9 C45.31,50.81 46.06,50.74 46.76,50.68 C54.2,50.07 58,51.98 58.9,52.52 C58.89,51.77 58.89,51.02 58.89,50.27 Z" fill="#757575"/>
    <path d="M40.15,49.43 C32.33,50.5 22.59,52.23 19.13,52.86 C19.13,53.54 19.13,54.21 19.13,54.89 C22.18,54.33 32.15,52.54 40.15,51.44 L40.15,49.43 Z" fill="#757575"/>
    <path d="M28.25,58.47 C24.32,59.13 20.92,59.74 19.13,60.06 C19.13,60.74 19.13,61.42 19.13,62.09 C20.75,61.79 24.2,61.17 28.25,60.49 L28.25,58.47 Z" fill="#757575"/>
    <path d="M58.9,57.51 C56.99,56.63 53.01,55.37 46.54,55.9 C42.94,56.2 37.66,56.95 32.6,57.76 L32.6,59.78 C37.71,58.96 43.08,58.19 46.7,57.89 C54.33,57.26 58.14,59.3 58.9,59.76 C58.9,59.01 58.9,58.26 58.9,57.51 Z" fill="#757575"/>
    <path d="M58.92,71.98 C57.1,71.11 53.16,69.8 46.66,70.29 L46.66,72.3 C54.95,71.63 58.71,74.11 58.92,74.26 C58.92,73.52 58.92,72.76 58.92,71.98 Z" fill="#757575"/>
    <path d="M26.38,73.18 C23.3,73.71 20.68,74.17 19.15,74.45 C19.15,75.15 19.15,75.82 19.15,76.48 C20.56,76.22 23.2,75.75 26.38,75.2 L26.38,73.18 Z" fill="#757575"/>
    <path d="M30.72,72.46 L30.72,74.49 C34.6,73.86 38.77,73.22 42.32,72.77 L42.32,70.75 C38.79,71.19 34.62,71.82 30.72,72.46 Z" fill="#757575"/>
    <path d="M37.67,78.58 C30.51,79.62 22.46,81.05 19.16,81.65 C19.16,82.39 19.16,83.07 19.16,83.68 C22.15,83.13 30.35,81.67 37.67,80.6 L37.67,78.58 Z" fill="#757575"/>
    <path d="M58.93,79.22 C57.12,78.34 53.09,76.97 46.37,77.52 C45.1,77.62 43.62,77.79 42.01,77.99 L42.01,80 C43.68,79.79 45.22,79.62 46.53,79.51 C55.09,78.8 58.85,81.46 58.89,81.48 L58.94,81.42 C58.94,80.73 58.94,80 58.93,79.22 Z" fill="#757575"/>
    <path d="M36.18,64.4 C29.36,65.42 22.13,66.71 19.14,67.26 C19.14,67.95 19.14,68.62 19.14,69.29 C21.82,68.8 29.19,67.48 36.18,66.42 L36.18,64.4 Z" fill="#757575"/>
    <path d="M58.91,64.74 C57.03,63.86 53.04,62.56 46.48,63.1 C44.8,63.24 42.75,63.48 40.53,63.78 L40.53,65.8 C42.82,65.49 44.93,65.24 46.65,65.1 C54.53,64.45 58.34,66.64 58.92,67.01 C58.91,66.27 58.91,65.51 58.91,64.74 Z" fill="#757575"/>
  </g>
  <g opacity="0.5">
    <path d="M88.41,29.71 C96.69,30.81 107.51,32.77 110.45,33.3 C110.45,32.56 110.45,31.89 110.44,31.27 C107,30.64 96.47,28.76 88.4,27.69 L88.4,29.71 Z" fill="#757575"/>
    <path d="M84.06,27.19 C83.63,27.15 83.22,27.11 82.83,27.08 C76.56,26.56 72.64,27.73 70.67,28.6 C70.67,29.25 70.68,30 70.68,30.82 C71.8,30.2 75.59,28.49 82.67,29.07 C83.11,29.11 83.58,29.15 84.06,29.2 L84.06,27.19 Z" fill="#757575"/>
    <path d="M102.36,39.08 C106.03,39.71 109.07,40.25 110.46,40.51 C110.46,39.81 110.46,39.14 110.46,38.48 C108.89,38.19 105.91,37.66 102.36,37.06 L102.36,39.08 Z" fill="#757575"/>
    <path d="M98.02,36.33 C92.61,35.46 86.77,34.6 82.89,34.28 C76.59,33.76 72.66,34.94 70.69,35.81 C70.69,36.53 70.69,37.27 70.69,38.04 C71.75,37.44 75.54,35.68 82.72,36.27 C86.63,36.59 92.56,37.47 98.01,38.35 L98.01,36.33 Z" fill="#757575"/>
    <path d="M97.18,43.39 L97.18,45.41 C102.99,46.34 108.4,47.32 110.46,47.7 C110.46,47.01 110.46,46.34 110.46,45.67 C108.13,45.25 102.82,44.3 97.18,43.39 Z" fill="#757575"/>
    <path d="M88.4,49.3 C86.39,49.04 84.53,48.82 82.99,48.7 C76.58,48.17 72.62,49.4 70.69,50.28 C70.69,51.03 70.69,51.78 70.69,52.53 C71.59,52 75.4,50.08 82.83,50.69 C84.41,50.82 86.33,51.04 88.4,51.32 L88.4,49.3 Z" fill="#757575"/>
    <path d="M92.75,49.91 L92.75,51.93 C100,53.01 107.81,54.42 110.45,54.9 C110.45,54.22 110.45,53.54 110.45,52.87 C107.47,52.32 99.82,50.96 92.75,49.91 Z" fill="#757575"/>
    <path d="M93.63,57.24 C89.68,56.64 85.85,56.13 83.05,55.9 C76.57,55.37 72.59,56.63 70.69,57.51 C70.69,58.26 70.69,59.02 70.69,59.77 C71.45,59.3 75.26,57.27 82.89,57.9 C85.72,58.13 89.63,58.66 93.64,59.27 L93.64,57.24 Z" fill="#757575"/>
    <path d="M97.97,57.92 L97.97,59.95 C103.41,60.83 108.39,61.73 110.44,62.1 C110.44,61.43 110.44,60.75 110.44,60.07 C108.16,59.65 103.26,58.77 97.97,57.92 Z" fill="#757575"/>
    <path d="M105.04,66.3 L105.04,68.33 C107.4,68.74 109.33,69.09 110.43,69.29 C110.43,68.62 110.43,67.94 110.43,67.26 C109.23,67.04 107.33,66.7 105.04,66.3 Z" fill="#757575"/>
    <path d="M89.29,71.01 C87,70.7 84.88,70.45 83.16,70.31 C76.52,69.76 72.51,71.1 70.67,71.98 C70.67,72.76 70.67,73.52 70.67,74.26 C70.88,74.11 74.66,71.61 83.01,72.3 C84.77,72.44 86.95,72.7 89.31,73.02 L89.31,71.01 Z" fill="#757575"/>
    <path d="M93.63,71.63 L93.63,73.65 C100.51,74.69 107.73,75.99 110.43,76.48 C110.43,75.82 110.43,75.14 110.43,74.45 C107.43,73.91 100.35,72.65 93.63,71.63 Z" fill="#757575"/>
    <path d="M97.18,79.38 C92.11,78.57 86.81,77.81 83.21,77.51 C76.48,76.96 72.46,78.34 70.65,79.21 C70.65,79.99 70.65,80.72 70.65,81.41 L70.7,81.47 C70.73,81.45 74.49,78.79 83.06,79.5 C86.69,79.8 92.08,80.58 97.2,81.4 L97.2,79.38 Z" fill="#757575"/>
    <path d="M101.53,80.1 L101.53,82.13 C105.42,82.78 108.74,83.38 110.42,83.69 C110.42,83.08 110.42,82.4 110.42,81.66 C108.59,81.32 105.31,80.73 101.53,80.1 Z" fill="#757575"/>
    <path d="M82.93,63.09 C76.47,62.58 72.53,63.87 70.67,64.74 C70.67,65.5 70.67,66.26 70.67,67.01 C71.25,66.64 75.05,64.45 82.93,65.1 L82.93,63.09 Z" fill="#757575"/>
    <path d="M87.28,63.55 L87.28,65.56 C91.4,66.08 96.35,66.86 100.7,67.58 L100.7,65.55 C96.32,64.83 91.37,64.06 87.28,63.55 Z" fill="#757575"/>
    <path d="M79.72,41.37 C75.24,41.4 72.29,42.32 70.7,43.04 C70.7,43.78 70.7,44.52 70.7,45.28 C71.54,44.8 74.41,43.41 79.72,43.36 L79.72,41.37 Z" fill="#757575"/>
    <path d="M84.06,41.59 L84.06,43.6 C86.55,43.85 89.64,44.27 92.83,44.74 L92.83,42.72 C89.63,42.24 86.55,41.83 84.06,41.59 Z" fill="#757575"/>
  </g>
  <path d="M71.16,98.45 C70.04,98.35 69.01,99.04 68.65,100.11 C68.11,101.74 66.85,103.87 64,103.87 C61.12,103.87 59.85,101.73 59.3,100.1 C58.94,99.05 57.93,98.37 56.82,98.46 L56.43,98.49 L56.44,98.81 C56.44,102.98 59.82,106.36 63.99,106.36 C68.16,106.36 71.54,102.98 71.54,98.81 C71.54,98.71 71.53,98.48 71.53,98.48 L71.16,98.45 Z" fill="#616161"/>
</svg>
